Newaita-dark/apps/22/libreoffice-draw.svg

<svg height="22" viewBox="0 0 22 22" width="22" xmlns="http://www.w3.org/2000/svg" xmlns:xlink="http://www.w3.org/1999/xlink"><linearGradient id="a" gradientTransform="matrix(.0511582 0 0 .0429729 -1.808356 9.239165)" gradientUnits="userSpaceOnUse" x1="254" x2="254" y1="233.5" y2="254.666672"><stop offset="0" stop-opacity=".27451"/><stop offset="1" stop-opacity="0"/></linearGradient><linearGradient id="b"><stop offset="0" stop-opacity=".313726"/><stop offset=".222222" stop-opacity=".27451"/><stop offset="1" stop-opacity="0"/></linearGradient><radialGradient id="c" cx="450.908936" cy="189.579361" gradientTransform="matrix(.00000012 -.0537161 -.0966889 -.00000007 34.702833 43.721791)" gradientUnits="userSpaceOnUse" r="21.166656" xlink:href="#b"/><radialGradient id="d" cx="450.908936" cy="189.579361" gradientTransform="matrix(-.00000012 .0537161 .0966889 .00000007 -12.872623 -5.175142)" gradientUnits="userSpaceOnUse" r="21.166656" xlink:href="#b"/><radialGradient id="e" cx="450.908936" cy="189.579361" gradientTransform="matrix(-.00000012 -.0537161 .0966889 -.00000007 -12.872623 43.721791)" gradientUnits="userSpaceOnUse" r="21.166656" xlink:href="#b"/><radialGradient id="f" cx="450.908936" cy="189.579361" gradientTransform="matrix(.00000012 .0537161 -.0966889 .00000007 34.702832 -5.175142)" gradientUnits="userSpaceOnUse" r="21.166656" xlink:href="#b"/><linearGradient id="g"><stop offset="0" stop-color="#ffa726"/><stop offset="1" stop-color="#ffb74d"/></linearGradient><linearGradient id="h" gradientUnits="userSpaceOnUse" x1="10.915104" x2="10.915104" xlink:href="#g" y1="19.27332401286" y2="1.99107548985"/><linearGradient id="i" gradientUnits="userSpaceOnUse" x1="10.915104" x2="10.915104" y1="18.36373201286" y2="2.90066748985"><stop offset="0" stop-color="#e0e0e0"/><stop offset="1" stop-color="#eee"/></linearGradient><linearGradient id="j" gradientUnits="userSpaceOnUse" x1="9.645781025" x2="9.645781025" xlink:href="#g" y1="14.14373885" y2="9.59577361432"/><path d="m5.230469 19.273438h11.371093v.910156h-11.371093zm0 0" fill="url(#a)"/><path d="m16.601562 19.273438h1.816407v-.910157h-1.816407zm0 0" fill="url(#c)"/><path d="m5.230469 19.273438h-1.820313v.910156h1.820313zm0 0" fill="url(#d)"/><path d="m5.230469 19.273438h-1.820313v-.910157h1.820313zm0 0" fill="url(#e)"/><path d="m16.601562 19.273438h1.816407v.910156h-1.816407zm0 0" fill="url(#f)"/><path d="m4.546875 1.992188c-.503906 0-.910156.40625-.910156.910156v15.460937c0 .503907.40625.910157.910156.910157h12.734375c.503906 0 .910156-.40625.910156-.910157v-10.347656l-6.023437-6.023437zm9.550781 0 4.09375 4.09375v-3.183594c0-.503906-.40625-.910156-.910156-.910156zm0 0" fill="url(#h)"/><path d="m5.003906 2.902344c-.253906 0-.457031.199218-.457031.453125v14.554687c0 .25.203125.453125.457031.453125h11.824219c.25 0 .453125-.203125.453125-.453125v-9.550781l-5.457031-5.457031zm0 0" fill="url(#i)"/><path d="m4.546875 1.992188c-.503906 0-.910156.40625-.910156.910156v.226562c0-.503906.40625-.910156.910156-.910156h7.621094l6.023437 6.023438v-.226563l-6.023437-6.023437zm9.550781 0 .226563.226562h2.957031c.503906 0 .910156.40625.910156.910156v-.226562c0-.503906-.40625-.910156-.910156-.910156zm0 0" fill="#fff" fill-opacity=".588235"/><path d="m5.003906 2.902344c-.253906 0-.457031.199218-.457031.453125v.339843c0-.25.203125-.453124.457031-.453124h6.820313l5.457031 5.457031v-.339844l-5.457031-5.457031zm0 0" fill-opacity=".235294"/><path d="m4.546875 17.925781v.214844c0 .25.203125.453125.457031.453125h11.824219c.25 0 .453125-.203125.453125-.453125v-.214844c0 .25-.203125.453125-.453125.453125h-11.824219c-.253906 0-.457031-.203125-.457031-.453125zm0 0" fill="#fff" fill-opacity=".392157"/><path d="m440.101159 255.265544c-22.33144 0-40.196593 17.521592-40.196593 39.853032v1280.106886c0 21.98788 17.865153 39.853032 40.196593 39.853032h1039.95801c21.98788 0 39.853032-17.865152 39.853032-39.853032v-840.005726l-479.954192-479.954192zm0 0" fill="none" stroke="#212121" stroke-linecap="round" stroke-linejoin="round" stroke-width="11.338583" transform="scale(.0113699)"/><path d="m14.097656 1.992188 4.09375 4.09375v-.222657l-3.871094-3.871093zm-10.460937 16.148437v.222656c0 .503907.40625.910157.910156.910157h12.734375c.503906 0 .910156-.40625.910156-.910157v-.222656c0 .503906-.40625.910156-.910156.910156h-12.734375c-.503906 0-.910156-.40625-.910156-.910156zm0 0" fill-opacity=".235294"/><path d="m399.904566 175.215918c-44.31932 0-80.049625 35.730305-80.049625 80.049626v1359.81295c0 44.31932 35.730305 80.049625 80.049625 80.049625h1120.007635c44.319321 0 80.049626-35.730305 80.049626-80.049625v-910.092093l-529.770483-529.770483zm840.005726 0 360.051535 360.051534v-280.001908c0-44.319321-35.730305-80.049626-80.049626-80.049626zm0 0" fill="none" stroke="#212121" stroke-linecap="round" stroke-linejoin="round" stroke-width="11.338583" transform="scale(.0113699)"/><path d="m9.804688 7.128906c-1.261719 0-2.292969 1.027344-2.292969 2.289063 0 .523437.179687 1.007812.476562 1.394531l.542969-.953125c.160156-.277344.449219-.457031.773438-.472656.054687-.003907.105468 0 .160156.003906.019531-.046875.046875-.09375.082031-.132813.171875-.199218.429687-.328124.710937-.328124h1.785157c-.226563-1.027344-1.144531-1.800782-2.238281-1.800782zm.863281 2.464844c-.144531 0-.269531.0625-.355469.160156.105469.078125.195312.179688.265625.296875l1.816406 3.183594c.175781.304687.144531.660156-.019531.9375h1.929688c.261718 0 .472656-.210937.472656-.46875v-3.640625c0-.257812-.210938-.46875-.472656-.46875zm-1.21875.453125c-.007813 0-.011719 0-.019531 0-.160157.007813-.304688.097656-.386719.238281l-1.816407 3.183594c-.179687.3125.046876.703125.410157.703125h3.636719c.363281 0 .589843-.390625.410156-.703125l-1.820313-3.183594c-.085937-.148437-.246093-.242187-.414062-.238281zm0 0" fill="url(#j)"/><path d="m9.804688 7.128906c-1.261719 0-2.292969 1.027344-2.292969 2.289063 0 .058593.003906.113281.007812.171875.089844-1.183594 1.082031-2.121094 2.285157-2.121094.96875 0 1.800781.609375 2.132812 1.460938h.105469c-.226563-1.027344-1.144531-1.800782-2.238281-1.800782zm.863281 2.464844c-.144531 0-.269531.0625-.355469.160156.078125.058594.144531.125.203125.203125.046875-.015625.097656-.023437.152344-.023437h3.636719c.261718 0 .472656.210937.472656.472656v-.34375c0-.257812-.210938-.46875-.472656-.46875zm-1.21875.453125c-.007813 0-.011719 0-.019531 0-.160157.007813-.304688.097656-.386719.238281l-1.816407 3.183594c-.078124.132812-.078124.277344-.03125.402344.007813-.019532.019532-.042969.03125-.0625l1.816407-3.183594c.082031-.140625.226562-.230469.386719-.238281h.019531c.167969 0 .328125.089843.414062.238281l1.820313 3.183594c.011718.019531.019531.042968.03125.0625.046875-.125.042968-.269532-.03125-.402344l-1.820313-3.183594c-.085937-.148437-.246093-.242187-.414062-.238281zm3.046875 3.804687c-.019532.113282-.0625.222657-.121094.320313h.125c.019531-.105469.019531-.214844-.003906-.320313zm0 0" fill="#fff" fill-opacity=".392157"/><path d="m10.257812 8.917969c-.28125 0-.539062.125-.710937.324219-.035156.042968-.0625.085937-.082031.136718-.054688-.007812-.109375-.007812-.160156-.003906-.324219.015625-.613282.191406-.773438.472656l-.542969.949219c-.265625-.34375-.433593-.765625-.46875-1.222656-.003906.058593-.007812.113281-.007812.171875 0 .523437.179687 1.007812.476562 1.394531l.542969-.953125c.160156-.277344.449219-.457031.773438-.472656.050781-.003906.105468 0 .160156.003906.019531-.046875.046875-.09375.082031-.132812.171875-.199219.429687-.328126.710937-.328126h1.785157c-.027344-.117187-.0625-.230468-.105469-.339843zm.257813 1.027343c-.078125.027344-.148437.074219-.203125.136719.105469.078125.195312.179688.265625.296875l1.816406 3.183594c.050781.089844.085938.179688.101563.273438.039062-.203126.011718-.417969-.101563-.613282l-1.816406-3.183594c-.019531-.035156-.039063-.066406-.0625-.09375zm4.261719 3.742188c0 .261719-.210938.472656-.472656.472656h-1.804688c-.019531.121094-.0625.238282-.125.339844h1.929688c.261718 0 .472656-.210938.472656-.46875zm-7.582032.171875c-.117187.300781.101563.640625.441407.640625h3.636719c.339843 0 .558593-.339844.441406-.640625-.070313.171875-.230469.300781-.441406.300781h-3.636719c-.210938 0-.375-.128906-.441407-.300781zm0 0" fill-opacity=".235294"/><path d="m228.16003-49.106751c-29.360833 0-53.358541 23.906808-53.358541 53.26764 0 12.180655 4.181419 23.452306 11.08985 32.451447l12.635157-22.1797c3.726917-6.453929 10.453547-10.635348 17.998281-10.99895 1.272606-.0909 2.454312 0 3.726917.0909.454502-1.090804 1.090805-2.181609 1.908909-3.090613 3.999618-4.635921 9.999045-7.635635 16.543875-7.635635h41.541487c-5.272224-23.906808-26.63382-41.905089-52.085935-41.905089zm20.088991 57.358159c-3.363316 0-6.272129 1.454406-8.271938 3.726917 2.454311 1.818008 4.545021 4.181419 6.181228 6.908431l42.268691 74.083834c4.090519 7.090232 3.363315 15.36217-.454502 21.816099h44.904803c6.090327 0 10.998949-4.908622 10.998949-10.908049v-84.719183c0-5.999427-4.908622-10.908049-10.998949-10.908049zm-28.360928 10.544447c-.181801 0-.272702 0-.454502 0-3.726917.181801-7.090232 2.272511-8.999141 5.544925l-42.268691 74.083835c-4.181419 7.272033 1.090805 16.362074 9.544543 16.362074h84.628282c8.453738 0 13.725962-9.090041 9.544543-16.362074l-42.359591-74.083835c-1.999809-3.454215-5.726726-5.635825-9.635443-5.544925zm0 0" fill="none" stroke="#212121" stroke-linecap="round" stroke-linejoin="round" stroke-width="3" transform="matrix(.0429729 0 0 .0429729 0 9.239163)"/></svg>

<?xml version="1.0" encoding="UTF-8"?>
<svg xmlns="http://www.w3.org/2000/svg" xmlns:xlink="http://www.w3.org/1999/xlink" width="22px" height="22px" viewBox="0 0 22 22" version="1.1">
<defs>
<linearGradient id="linear0" gradientUnits="userSpaceOnUse" x1="254" y1="233.5" x2="254" y2="254.666672" gradientTransform="matrix(0.0511582,0,0,0.0429729,-1.808356,9.239165)">
<stop offset="0" style="stop-color:rgb(0%,0%,0%);stop-opacity:0.27451;"/>
<stop offset="1" style="stop-color:rgb(0%,0%,0%);stop-opacity:0;"/>
</linearGradient>
<radialGradient id="radial0" gradientUnits="userSpaceOnUse" cx="450.908936" cy="189.579361" fx="450.908936" fy="189.579361" r="21.166656" gradientTransform="matrix(0.000000119742,-0.0537161,-0.0966889,-0.0000000698078,34.702833,43.721791)">
<stop offset="0" style="stop-color:rgb(0%,0%,0%);stop-opacity:0.313726;"/>
<stop offset="0.222222" style="stop-color:rgb(0%,0%,0%);stop-opacity:0.27451;"/>
<stop offset="1" style="stop-color:rgb(0%,0%,0%);stop-opacity:0;"/>
</radialGradient>
<radialGradient id="radial1" gradientUnits="userSpaceOnUse" cx="450.908936" cy="189.579361" fx="450.908936" fy="189.579361" r="21.166656" gradientTransform="matrix(-0.000000119742,0.0537161,0.0966889,0.0000000698078,-12.872623,-5.175142)">
<stop offset="0" style="stop-color:rgb(0%,0%,0%);stop-opacity:0.313726;"/>
<stop offset="0.222222" style="stop-color:rgb(0%,0%,0%);stop-opacity:0.27451;"/>
<stop offset="1" style="stop-color:rgb(0%,0%,0%);stop-opacity:0;"/>
</radialGradient>
<radialGradient id="radial2" gradientUnits="userSpaceOnUse" cx="450.908936" cy="189.579361" fx="450.908936" fy="189.579361" r="21.166656" gradientTransform="matrix(-0.000000119742,-0.0537161,0.0966889,-0.0000000698078,-12.872623,43.721791)">
<stop offset="0" style="stop-color:rgb(0%,0%,0%);stop-opacity:0.313726;"/>
<stop offset="0.222222" style="stop-color:rgb(0%,0%,0%);stop-opacity:0.27451;"/>
<stop offset="1" style="stop-color:rgb(0%,0%,0%);stop-opacity:0;"/>
</radialGradient>
<radialGradient id="radial3" gradientUnits="userSpaceOnUse" cx="450.908936" cy="189.579361" fx="450.908936" fy="189.579361" r="21.166656" gradientTransform="matrix(0.000000119742,0.0537161,-0.0966889,0.0000000698078,34.702832,-5.175142)">
<stop offset="0" style="stop-color:rgb(0%,0%,0%);stop-opacity:0.313726;"/>
<stop offset="0.222222" style="stop-color:rgb(0%,0%,0%);stop-opacity:0.27451;"/>
<stop offset="1" style="stop-color:rgb(0%,0%,0%);stop-opacity:0;"/>
</radialGradient>
<linearGradient id="linear1" gradientUnits="userSpaceOnUse" x1="254" y1="233.5" x2="254" y2="-168.666672" gradientTransform="matrix(0.0429729,0,0,0.0429729,0,9.239163)">
<stop offset="0" style="stop-color:rgb(87.843138%,87.843138%,87.843138%);stop-opacity:1;"/>
<stop offset="1" style="stop-color:rgb(93.333334%,93.333334%,93.333334%);stop-opacity:1;"/>
</linearGradient>
<linearGradient id="linear2" gradientUnits="userSpaceOnUse" x1="413.712219" y1="-474.701691" x2="413.712219" y2="-72.535034" gradientTransform="matrix(0.0429729,0,0,0.0429729,0,9.239163)">
<stop offset="0" style="stop-color:rgb(100%,65.490198%,14.901961%);stop-opacity:1;"/>
<stop offset="1" style="stop-color:rgb(100%,71.764708%,30.19608%);stop-opacity:1;"/>
</linearGradient>
<linearGradient id="linear3" gradientUnits="userSpaceOnUse" x1="222.25" y1="106.5" x2="222.25" y2="0.666667" gradientTransform="matrix(0.0429729,0,0,0.0429729,0.0484137,9.563406)">
<stop offset="0" style="stop-color:rgb(100%,65.490198%,14.901961%);stop-opacity:1;"/>
<stop offset="1" style="stop-color:rgb(100%,71.764708%,30.19608%);stop-opacity:1;"/>
</linearGradient>
</defs>
<g id="surface1">
<path style=" stroke:none;fill-rule:nonzero;fill:url(#linear0);" d="M 5.230469 19.273438 L 16.601562 19.273438 L 16.601562 20.183594 L 5.230469 20.183594 Z M 5.230469 19.273438 "/>
<path style=" stroke:none;fill-rule:nonzero;fill:url(#radial0);" d="M 16.601562 19.273438 L 18.417969 19.273438 L 18.417969 18.363281 L 16.601562 18.363281 Z M 16.601562 19.273438 "/>
<path style=" stroke:none;fill-rule:nonzero;fill:url(#radial1);" d="M 5.230469 19.273438 L 3.410156 19.273438 L 3.410156 20.183594 L 5.230469 20.183594 Z M 5.230469 19.273438 "/>
<path style=" stroke:none;fill-rule:nonzero;fill:url(#radial2);" d="M 5.230469 19.273438 L 3.410156 19.273438 L 3.410156 18.363281 L 5.230469 18.363281 Z M 5.230469 19.273438 "/>
<path style=" stroke:none;fill-rule:nonzero;fill:url(#radial3);" d="M 16.601562 19.273438 L 18.417969 19.273438 L 18.417969 20.183594 L 16.601562 20.183594 Z M 16.601562 19.273438 "/>
<path style=" stroke:none;fill-rule:nonzero;fill:url(#linear1);" d="M 13.683594 1.992188 L 4.546875 1.992188 C 4.042969 1.992188 3.636719 2.398438 3.636719 2.902344 L 3.636719 18.363281 C 3.636719 18.867188 4.042969 19.273438 4.546875 19.273438 L 17.28125 19.273438 C 17.785156 19.273438 18.191406 18.867188 18.191406 18.363281 L 18.191406 6.121094 Z M 13.683594 1.992188 "/>
<path style=" stroke:none;fill-rule:nonzero;fill:url(#linear2);" d="M 13.683594 1.992188 L 18.191406 6.121094 L 18.191406 2.902344 C 18.191406 2.398438 17.785156 1.992188 17.28125 1.992188 Z M 13.683594 1.992188 "/>
<path style=" stroke:none;fill-rule:nonzero;fill:url(#linear3);" d="M 9.757812 7.125 C 8.496094 7.125 7.464844 8.152344 7.464844 9.414062 C 7.464844 9.9375 7.644531 10.421875 7.941406 10.808594 L 8.484375 9.855469 C 8.644531 9.578125 8.933594 9.398438 9.257812 9.382812 C 9.3125 9.378906 9.363281 9.382812 9.417969 9.390625 C 9.4375 9.339844 9.464844 9.292969 9.5 9.253906 C 9.671875 9.054688 9.929688 8.925781 10.210938 8.925781 L 11.996094 8.925781 C 11.769531 7.898438 10.851562 7.125 9.757812 7.125 Z M 10.621094 9.589844 C 10.476562 9.589844 10.351562 9.652344 10.265625 9.75 C 10.371094 9.828125 10.460938 9.929688 10.53125 10.046875 L 12.347656 13.230469 C 12.523438 13.539062 12.492188 13.890625 12.332031 14.171875 L 14.257812 14.171875 C 14.519531 14.171875 14.730469 13.957031 14.730469 13.699219 L 14.730469 10.058594 C 14.730469 9.800781 14.519531 9.589844 14.257812 9.589844 Z M 9.402344 10.042969 C 9.394531 10.042969 9.390625 10.042969 9.386719 10.042969 C 9.222656 10.050781 9.078125 10.140625 9 10.28125 L 7.179688 13.464844 C 7 13.777344 7.226562 14.167969 7.589844 14.167969 L 11.226562 14.167969 C 11.589844 14.167969 11.816406 13.777344 11.636719 13.464844 L 9.816406 10.28125 C 9.730469 10.132812 9.574219 10.039062 9.402344 10.042969 Z M 9.402344 10.042969 "/>
<path style=" stroke:none;fill-rule:nonzero;fill:rgb(0%,0%,0%);fill-opacity:0.235294;" d="M 3.636719 18.136719 L 3.636719 18.363281 C 3.636719 18.867188 4.042969 19.273438 4.546875 19.273438 L 17.28125 19.273438 C 17.785156 19.273438 18.191406 18.867188 18.191406 18.363281 L 18.191406 18.136719 C 18.191406 18.640625 17.785156 19.046875 17.28125 19.046875 L 4.546875 19.046875 C 4.042969 19.046875 3.636719 18.640625 3.636719 18.136719 Z M 3.636719 18.136719 "/>
<path style=" stroke:none;fill-rule:nonzero;fill:rgb(100%,100%,100%);fill-opacity:1;" d="M 4.546875 1.992188 C 4.042969 1.992188 3.636719 2.398438 3.636719 2.902344 L 3.636719 3.355469 C 3.636719 2.851562 4.042969 2.445312 4.546875 2.445312 L 13.683594 2.445312 L 18.191406 6.578125 L 18.191406 6.121094 L 13.683594 1.992188 Z M 4.546875 1.992188 "/>
<path style=" stroke:none;fill-rule:nonzero;fill:rgb(100%,100%,100%);fill-opacity:0.392157;" d="M 13.683594 1.992188 L 14.179688 2.445312 L 17.28125 2.445312 C 17.785156 2.445312 18.191406 2.851562 18.191406 3.355469 L 18.191406 2.902344 C 18.191406 2.398438 17.785156 1.992188 17.28125 1.992188 Z M 13.683594 1.992188 "/>
<path style=" stroke:none;fill-rule:nonzero;fill:rgb(0%,0%,0%);fill-opacity:0.235294;" d="M 13.683594 1.992188 L 18.191406 6.121094 L 18.191406 5.742188 L 14.097656 1.992188 Z M 13.683594 1.992188 "/>
<path style="fill:none;stroke-width:11.338583;stroke-linecap:round;stroke-linejoin:round;stroke:rgb(12.941177%,12.941177%,12.941177%);stroke-opacity:1;stroke-miterlimit:4;" d="M 1203.492866 175.215918 L 399.904566 175.215918 C 355.585246 175.215918 319.854941 210.946223 319.854941 255.265544 L 319.854941 1615.078494 C 319.854941 1659.397814 355.585246 1695.128119 399.904566 1695.128119 L 1519.912201 1695.128119 C 1564.231522 1695.128119 1599.961827 1659.397814 1599.961827 1615.078494 L 1599.961827 538.359498 Z M 1203.492866 175.215918 " transform="matrix(0.0113699,0,0,0.0113699,0,0)"/>
<path style="fill:none;stroke-width:3;stroke-linecap:round;stroke-linejoin:round;stroke:rgb(12.941177%,12.941177%,12.941177%);stroke-opacity:1;stroke-miterlimit:4;" d="M 318.424137 -168.640791 L 423.323211 -72.559057 L 423.323211 -147.460995 C 423.323211 -159.187148 413.869568 -168.640791 402.143415 -168.640791 Z M 318.424137 -168.640791 " transform="matrix(0.0429729,0,0,0.0429729,0,9.239163)"/>
<path style=" stroke:none;fill-rule:nonzero;fill:rgb(100%,100%,100%);fill-opacity:0.392157;" d="M 9.757812 7.125 C 8.496094 7.125 7.464844 8.152344 7.464844 9.414062 C 7.464844 9.472656 7.46875 9.527344 7.472656 9.585938 C 7.5625 8.402344 8.554688 7.464844 9.757812 7.464844 C 10.726562 7.464844 11.558594 8.074219 11.890625 8.925781 L 11.996094 8.925781 C 11.769531 7.898438 10.851562 7.125 9.757812 7.125 Z M 10.621094 9.589844 C 10.476562 9.589844 10.351562 9.652344 10.265625 9.75 C 10.34375 9.808594 10.410156 9.875 10.46875 9.953125 C 10.515625 9.9375 10.566406 9.929688 10.621094 9.929688 L 14.257812 9.929688 C 14.519531 9.929688 14.730469 10.140625 14.730469 10.402344 L 14.730469 10.058594 C 14.730469 9.800781 14.519531 9.589844 14.257812 9.589844 Z M 9.402344 10.042969 C 9.394531 10.042969 9.390625 10.042969 9.386719 10.042969 C 9.222656 10.050781 9.078125 10.140625 9 10.28125 L 7.179688 13.464844 C 7.101562 13.597656 7.101562 13.742188 7.148438 13.867188 C 7.15625 13.847656 7.167969 13.824219 7.179688 13.804688 L 9 10.621094 C 9.078125 10.480469 9.222656 10.394531 9.386719 10.386719 C 9.390625 10.382812 9.394531 10.382812 9.402344 10.382812 C 9.574219 10.382812 9.730469 10.472656 9.816406 10.621094 L 11.636719 13.804688 C 11.648438 13.824219 11.65625 13.847656 11.667969 13.867188 C 11.714844 13.742188 11.710938 13.597656 11.636719 13.464844 L 9.816406 10.28125 C 9.730469 10.132812 9.574219 10.039062 9.402344 10.042969 Z M 12.453125 13.847656 C 12.429688 13.960938 12.390625 14.070312 12.332031 14.171875 L 12.453125 14.171875 C 12.472656 14.0625 12.472656 13.953125 12.453125 13.847656 Z M 12.453125 13.847656 "/>
<path style=" stroke:none;fill-rule:nonzero;fill:rgb(0%,0%,0%);fill-opacity:0.235294;" d="M 10.210938 8.914062 C 9.929688 8.914062 9.671875 9.039062 9.5 9.238281 C 9.464844 9.28125 9.4375 9.324219 9.417969 9.375 C 9.363281 9.367188 9.3125 9.367188 9.257812 9.371094 C 8.933594 9.386719 8.644531 9.566406 8.484375 9.84375 L 7.941406 10.792969 C 7.675781 10.449219 7.507812 10.027344 7.472656 9.570312 C 7.46875 9.628906 7.464844 9.6875 7.464844 9.742188 C 7.464844 10.265625 7.644531 10.75 7.941406 11.136719 L 8.484375 10.183594 C 8.644531 9.90625 8.933594 9.726562 9.257812 9.710938 C 9.3125 9.707031 9.363281 9.710938 9.417969 9.714844 C 9.4375 9.667969 9.464844 9.621094 9.5 9.582031 C 9.671875 9.382812 9.929688 9.253906 10.210938 9.253906 L 11.996094 9.253906 C 11.96875 9.136719 11.933594 9.023438 11.890625 8.914062 Z M 10.46875 9.941406 C 10.390625 9.96875 10.320312 10.015625 10.265625 10.078125 C 10.371094 10.15625 10.460938 10.257812 10.53125 10.375 L 12.347656 13.558594 C 12.398438 13.648438 12.433594 13.738281 12.453125 13.835938 C 12.488281 13.628906 12.460938 13.414062 12.347656 13.21875 L 10.53125 10.035156 C 10.511719 10 10.492188 9.96875 10.46875 9.941406 Z M 14.730469 13.683594 C 14.730469 13.945312 14.519531 14.15625 14.257812 14.15625 L 12.453125 14.15625 C 12.433594 14.277344 12.390625 14.394531 12.332031 14.496094 L 14.257812 14.496094 C 14.519531 14.496094 14.730469 14.285156 14.730469 14.027344 Z M 7.148438 13.855469 C 7.03125 14.15625 7.25 14.496094 7.589844 14.496094 L 11.226562 14.496094 C 11.566406 14.496094 11.785156 14.15625 11.667969 13.855469 C 11.601562 14.027344 11.4375 14.15625 11.226562 14.15625 L 7.589844 14.15625 C 7.378906 14.15625 7.214844 14.027344 7.148438 13.855469 Z M 7.148438 13.855469 "/>
<path style="fill:none;stroke-width:3;stroke-linecap:round;stroke-linejoin:round;stroke:rgb(12.941177%,12.941177%,12.941177%);stroke-opacity:1;stroke-miterlimit:4;" d="M 227.069225 -49.197652 C 197.708393 -49.197652 173.710684 -25.290844 173.710684 4.069989 C 173.710684 16.250644 177.892103 27.522295 184.800534 36.521435 L 197.435691 14.341735 C 201.162608 7.887806 207.889238 3.706387 215.433973 3.342786 C 216.706578 3.251885 217.888284 3.342786 219.160889 3.524586 C 219.615391 2.342881 220.251694 1.252076 221.069798 0.343072 C 225.069416 -4.292849 231.068843 -7.292562 237.613673 -7.292562 L 279.15516 -7.292562 C 273.882936 -31.19937 252.52134 -49.197652 227.069225 -49.197652 Z M 247.158216 8.160507 C 243.794901 8.160507 240.886087 9.614914 238.886278 11.887424 C 241.340589 13.705432 243.431299 16.068843 245.067506 18.795855 L 287.336197 92.87969 C 291.426716 100.060822 290.699512 108.241859 286.972595 114.786689 L 331.786498 114.786689 C 337.876825 114.786689 342.785447 109.787166 342.785447 103.787739 L 342.785447 19.068557 C 342.785447 13.06913 337.876825 8.160507 331.786498 8.160507 Z M 218.797288 18.704955 C 218.615487 18.704955 218.524586 18.704955 218.433686 18.704955 C 214.615869 18.886756 211.252554 20.977465 209.434545 24.24988 L 167.074954 98.333714 C 162.893535 105.605747 168.165759 114.695788 176.619497 114.695788 L 261.247779 114.695788 C 269.701518 114.695788 274.973741 105.605747 270.792322 98.333714 L 228.432731 24.24988 C 226.432922 20.795664 222.796906 18.614055 218.797288 18.704955 Z M 218.797288 18.704955 " transform="matrix(0.0429729,0,0,0.0429729,0,9.239163)"/>
</g>
</svg>
